src/iconfont/vectors/rh_icon/rh-icon-bar-graph.svg

<?xml version="1.0" encoding="utf-8"?>
<!-- Generated by IcoMoon.io -->
<!DOCTYPE svg PUBLIC "-//W3C//DTD SVG 1.1//EN" "http://www.w3.org/Graphics/SVG/1.1/DTD/svg11.dtd">
<svg version="1.1" xmlns="http://www.w3.org/2000/svg" xmlns:xlink="http://www.w3.org/1999/xlink" width="32" height="32" viewBox="0 0 32 32">
<g>
</g>
	<path d="M24.873 23.563h-1.622l0-15.519c0-0.137-0.111-0.249-0.249-0.249h-4.498c-0.137 0-0.249 0.111-0.249 0.249v2.27h-4.16c-0.137 0-0.248 0.111-0.248 0.249v1.766l-4.044 0c-0.137 0-0.248 0.111-0.248 0.249v10.985h-2.098l0-15.457c0-0.183-0.148-0.331-0.331-0.331-0.183 0-0.331 0.148-0.331 0.331v15.788c0 0.182 0.148 0.33 0.331 0.33l17.747 0c0.183 0 0.331-0.148 0.331-0.33 0-0.183-0.148-0.331-0.331-0.331zM22.755 8.293v15.27h-3.995v-13c0-0.012-0.005-0.022-0.007-0.034v-2.236l4.002 0zM18.256 10.811v12.751h-3.898v-10.985c0-0.024-0.007-0.045-0.014-0.066v-1.7l3.912 0zM10.052 12.826h3.795v10.736l-3.795 0v-10.737z" fill="#000000" />
</svg>

<?xml version="1.0" encoding="utf-8"?>
<!-- Generator: Adobe Illustrator 21.1.0, SVG Export Plug-In . SVG Version: 6.00 Build 0)  -->
<!DOCTYPE svg PUBLIC "-//W3C//DTD SVG 1.1//EN" "http://www.w3.org/Graphics/SVG/1.1/DTD/svg11.dtd">
<svg version="1.1" id="Layer_1" xmlns="http://www.w3.org/2000/svg" xmlns:xlink="http://www.w3.org/1999/xlink" x="0px" y="0px"
	 viewBox="0 0 32 32" style="enable-background:new 0 0 32 32;" xml:space="preserve">
<path d="M24.87,23.56h-1.62V8.04c0-0.14-0.11-0.25-0.25-0.25h-4.5c-0.14,0-0.25,0.11-0.25,0.25v2.27H14.1
	c-0.14,0-0.25,0.11-0.25,0.25v1.77H9.8c-0.14,0-0.25,0.11-0.25,0.25v10.98h-2.1V8.11c0-0.18-0.15-0.33-0.33-0.33S6.8,7.92,6.8,8.11
	v15.79c0,0.18,0.15,0.33,0.33,0.33h17.75c0.18,0,0.33-0.15,0.33-0.33C25.2,23.71,25.06,23.56,24.87,23.56z M22.76,8.29v15.27h-4v-13
	c0-0.01,0-0.02-0.01-0.03V8.29C18.75,8.29,22.76,8.29,22.76,8.29z M18.26,10.81v12.75h-3.9V12.58c0-0.02-0.01-0.05-0.01-0.07v-1.7
	C14.34,10.81,18.26,10.81,18.26,10.81z M10.05,12.83h3.8v10.74h-3.8V12.83L10.05,12.83z"/>
</svg>
